svg/fluentui-system-icons/ic_fluent_phone_key_24_regular.svg

<svg width="24" height="24" viewBox="0 0 24 24" fill="none" xmlns="http://www.w3.org/2000/svg">
<path d="M15.75 2C16.9926 2 18 3.00736 18 4.25V11.2561C17.4411 11.4536 16.9328 11.7585 16.5 12.1458V4.25C16.5 3.83579 16.1642 3.5 15.75 3.5H8.25C7.83579 3.5 7.5 3.83579 7.5 4.25V19.75C7.5 20.1642 7.83579 20.5 8.25 20.5H11.0278C11.0094 20.6018 11 20.7058 11 20.8107V22H8.25C7.00736 22 6 20.9926 6 19.75V4.25C6 3.00736 7.00736 2 8.25 2H15.75ZM13.2489 17.5C13.3487 17.4999 13.4441 17.5192 13.5313 17.5545L12.084 19.0018L10.7511 19.0038C10.3369 19.0044 10.0006 18.6691 10 18.2549C9.99938 17.8407 10.3347 17.5044 10.7489 17.5038L13.2489 17.5ZM19.5 19C21.433 19 23 17.433 23 15.5C23 13.567 21.433 12 19.5 12C17.567 12 16 13.567 16 15.5C16 15.8161 16.0419 16.1223 16.1204 16.4136C16.0666 16.4452 16.0159 16.4841 15.9697 16.5303L12.2197 20.2803C12.079 20.421 12 20.6117 12 20.8107V22.25C12 22.6642 12.3358 23 12.75 23H14.5C14.7761 23 15 22.7761 15 22.5V22H16C16.2761 22 16.5 21.7761 16.5 21.5V20.5H17.5C17.7761 20.5 18 20.2761 18 20V19H19.5ZM21 15C21 15.5523 20.5523 16 20 16C19.4477 16 19 15.5523 19 15C19 14.4477 19.4477 14 20 14C20.5523 14 21 14.4477 21 15Z" fill="#212121"/>
</svg>

<svg xmlns="http://www.w3.org/2000/svg" width="24" height="24"><path d="M15.75 2A2.25 2.25 0 0 1 18 4.25v7.006a4.498 4.498 0 0 0-1.5.89V4.25a.75.75 0 0 0-.75-.75h-7.5a.75.75 0 0 0-.75.75v15.5c0 .414.336.75.75.75h2.778a1.747 1.747 0 0 0-.028.31V22H8.25A2.25 2.25 0 0 1 6 19.75V4.25A2.25 2.25 0 0 1 8.25 2h7.5Zm-2.501 15.5c.1 0 .195.02.282.055l-1.447 1.447-1.333.002a.75.75 0 0 1-.002-1.5l2.5-.004ZM19.5 19a3.5 3.5 0 1 0-3.38-2.586.75.75 0 0 0-.15.116l-3.75 3.75a.75.75 0 0 0-.22.53v1.44c0 .414.336.75.75.75h1.75a.5.5 0 0 0 .5-.5V22h1a.5.5 0 0 0 .5-.5v-1h1a.5.5 0 0 0 .5-.5v-1h1.5Zm1.5-4a1 1 0 1 1-2 0 1 1 0 0 1 2 0Z"/></svg>
